svgs/sharp-light/note.svg

<svg xmlns="http://www.w3.org/2000/svg" viewBox="0 0 448 512"><!--! Font Awesome Pro 6.6.0 by @fontawesome - https://fontawesome.com License - https://fontawesome.com/license (Commercial License) Copyright 2024 Fonticons, Inc. --><path d="M416 64L32 64l0 384 240 0 0-128 0-16 16 0 128 0 0-240zm-5.3 272L304 336l0 106.7L410.7 336zm37.3 8L312 480 32 480 0 480l0-32L0 64 0 32l32 0 384 0 32 0 0 32 0 280zM128 128l0 48-48 0 0-48 48 0zM80 232l48 0 0 48-48 0 0-48zm48 104l0 48-48 0 0-48 48 0z"/></svg>

<svg xmlns="http://www.w3.org/2000/svg" viewBox="0 0 448 512"><!--! Font Awesome Pro 6.4.2 by @fontawesome - https://fontawesome.com License - https://fontawesome.com/license (Commercial License) Copyright 2023 Fonticons, Inc. --><path d="M416 64H32V448H272V320 304h16H416V64zm-5.3 272H304V442.7L410.7 336zm37.3 8L312 480H32 0V448 64 32H32 416h32V64 344zM128 128v48H80V128h48zM80 232h48v48H80V232zm48 104v48H80V336h48z"/></svg>
